X:252
T:Jig in A
B:Kerr's Merry Melodies Bk.4, p25
Z:Nigel Gatherer
M:6/8
L:1/8
K:A
AA|EAA AGA|Bdd dBd|eae dBG|ABA GFE|EAA AGA|
Bdd dBd|eae dBG|BAA A::cd|eaa e3|eaa bag|eaa e3|
BGB dBG|eaa e3|eaa bag|eae dBG|BAA A:|
<end>
<start>
